X:1
T:Op. 60 No. 3
T:Op. 60 No. 3
T:Matteo Carcassi (1792-1853)
T:This work is Public Domain, it is free to record, repost (score, video etc.), and distribute as you see fit. Attribution is appreciated, but not required. Please visit my website at http://www.paulyguitar.blogspot.com • Please consider supporting my work at http://www.patreon.com/paulbrookshorniii
C:Matteo Carcassi
Z:This work is Public Domain, it is free to record, repost (score, video etc.), and distribute as you see fit. Attribution is appreciated, but not required.
Z:Please visit my website at http://www.paulyguitar.blogspot.com • Please consider supporting my work at http://www.patreon.com/paulbrookshorniii
%%score ( 1 2 )
L:1/8
Q:1/4=108
M:4/4
K:A
V:1 treble-8 nm="Classical Guitar" snm="Guit."
V:2 treble-8 
V:1
"^Moderato"(3x!1!A!2!c (3!3!fAc (3eAc (3A,Ac |(3!4!x!3!B!2!d (3!1!fBd (3eBd (3G,Bd | %2
(3x!2!B!1!d (3!4!aBd (3!3!gBd (3E,Bd |"^V"(3x!2!c!1!e (3!4!bAc (3!1!ace (3A,ce | %4
"^II"(3xAc (3gAc (3fAc (3A,!2!A!3!c |(3x=G!3!c (3!4!fGc (3eGc (3^A,Gc | %6
"^II"(3x!3!F!1!A (3!4!eFA(3xFA (3!4!^dFA |(3x!1!GB (3eGB !2!E2 z2 :: %8
(3x!1!GB (3!3!fGB (3eGB (3!2!EGB |"^II"(3x!1!A!1!c (3!4!gAc (3fAc (3!1!EAc | %10
(3x!2!^A!1!c (3!3!=gAc (3!1!fAc (3!1!EAc |(3x!3!B!2!d (3!4!aBd (3!4!gBd (3!1!EBd | %12
(3!1!x!3!B!2!d (3!4!aBd (3!4!gBd (3^EBd |"^II"(3!3!x!1!A!1!c (3!4!aAc(3xAc (3aAc | %14
"^VII"(3xdf (3bdf(3xdf (3^bdf |"^IX"(3!1!x!2!^e!1!g (3!1!c'eg !3!c!4!d !0!B!0!=e | %16
(3x!2!A!3!c (3!4!fAc (3eAc (3A,Ac |(3x!2!B!1!d (3!4!aBd (3!3!gBd (3A,Bd | %18
(3x!2!GB (3!4!fGB (3eGB (3A,GB |"^V"(3x!2!c!1!e (3!4!bce (3!1!ace (3!3!Ace | %20
"^IV"(3!1!x!3!c!2!e (3!4!bce (3!3!^ace (3Fce |"^VII" (3z !1!d!1!f (3!3!c'df (3!1!bdf (3!4!d'df | %22
(3!1!x!3!AB (3!2!=fAB(3!2!x!1!G!4!d (3eGd |"^V"(3x!2!c!1!e (3!1!ace !3!A2 z2 :| %24
V:2
 A,6 A,2 | G,6 G,2 | E,6 E,2 | A,6 A,2 | A,6 A,2 | !1!^A,6 A,2 | !1!B,4 B,4 | E,4 E2 x2 :: E,6 E2 | %9
 E,6 E2 | E,6 E2 | E,6 E2 | ^E6 E2 | F4 F4 | D4 D4 | C6 z2 | A,6 A,2 | A,6 A,2 | A,6 A,2 | A,6 A2 | %20
 F6 F2 | D8 | ^D4 E4 | A,4 A2 x2 :| %24

